icons/steam-filled.svg

<svg width="256" height="256" viewBox="0 0 256 256" fill="none" xmlns="http://www.w3.org/2000/svg">
<rect width="256" height="256" rx="60" fill="url(#gradient)"/>
<path d="M123.852 91.1553L123.865 91.8322L90.3201 140.564C84.8878 140.316 79.4384 141.271 74.2631 143.401C71.9839 144.33 69.8504 145.47 67.8454 146.785L-5.8206 116.466C-5.8206 116.466 -7.52569 144.51 -0.422564 165.408L51.6556 186.898C54.2261 198.585 62.2803 208.832 74.1132 213.759C83.4224 217.627 93.8863 217.642 103.207 213.801C112.527 209.96 119.942 202.576 123.822 193.272C125.921 188.217 126.894 182.905 126.753 177.61L174.748 143.315L175.926 143.336C204.651 143.336 228 119.919 228 91.1553C227.993 77.339 222.507 64.0894 212.745 54.3122C202.983 44.535 189.742 39.0284 175.926 39C147.214 39 123.852 62.3915 123.852 91.1553ZM115.798 189.905C109.569 204.857 92.3808 211.956 77.442 205.731C70.5445 202.86 65.3478 197.599 62.3446 191.327L79.297 198.353C81.9158 199.444 84.7237 200.007 87.5604 200.011C90.397 200.016 93.2067 199.461 95.829 198.38C98.4512 197.298 100.835 195.71 102.843 193.707C104.851 191.704 106.445 189.324 107.534 186.705C109.738 181.412 109.751 175.461 107.57 170.158C105.389 164.856 101.193 160.636 95.9024 158.425L78.3373 151.163C85.0977 148.593 92.7835 148.507 99.9723 151.493C107.255 154.505 112.825 160.177 115.807 167.43C118.788 174.683 118.771 182.682 115.764 189.905M175.93 125.921C156.806 125.921 141.237 110.327 141.237 91.1639C141.247 81.9607 144.904 73.1365 151.407 66.6237C157.909 60.1108 166.727 56.44 175.93 56.4151C185.135 56.4378 193.955 60.1076 200.46 66.6207C206.964 73.1338 210.622 81.9592 210.632 91.1639C210.624 100.37 206.967 109.198 200.463 115.713C193.958 122.228 185.137 125.899 175.93 125.921ZM149.934 91.1082C149.934 76.6877 161.608 64.9963 175.982 64.9963C190.355 64.9963 202.047 76.692 202.047 91.1082C202.05 98.0256 199.306 104.661 194.418 109.556C189.531 114.451 182.899 117.205 175.982 117.212C169.067 117.201 162.438 114.446 157.553 109.552C152.668 104.657 149.931 98.0234 149.934 91.1082Z" fill="white"/>
<linearGradient id="gradient" x1="128.001" y1="0" x2="128.001" y2="256" gradientUnits="userSpaceOnUse">
<stop stop-color="#111D2E"/>
<stop offset="0.212" stop-color="#051839"/>
<stop offset="0.407" stop-color="#0A1B48"/>
<stop offset="0.581" stop-color="#132E62"/>
<stop offset="0.738" stop-color="#144B7E"/>
<stop offset="0.873" stop-color="#136497"/>
<stop offset="1" stop-color="#1387B8"/>
</linearGradient>
</svg>

<svg xmlns="http://www.w3.org/2000/svg" width="256" height="256" fill="none"><rect width="256" height="256" fill="url(#gradient)" rx="60"/><path fill="#fff" d="m123.852 91.155.013.677-33.545 48.732c-5.432-.248-10.882.707-16.057 2.837a37.5 37.5 0 0 0-6.418 3.384L-5.82 116.466s-1.705 28.044 5.398 48.942l52.079 21.49c2.57 11.687 10.624 21.934 22.457 26.861a38.046 38.046 0 0 0 49.709-20.487c2.099-5.055 3.072-10.367 2.931-15.662l47.995-34.295 1.178.021c28.725 0 52.074-23.417 52.074-52.18A52.18 52.18 0 0 0 175.926 39c-28.712 0-52.074 23.392-52.074 52.155m-8.054 98.75c-6.229 14.952-23.417 22.051-38.356 15.826-6.897-2.871-12.094-8.132-15.097-14.404l16.952 7.026a21.6 21.6 0 0 0 23.546-4.646 21.6 21.6 0 0 0 4.691-7.002 21.636 21.636 0 0 0-11.632-28.28l-17.565-7.262c6.76-2.57 14.447-2.656 21.635.33 7.283 3.012 12.853 8.684 15.835 15.937 2.981 7.253 2.964 15.252-.043 22.475m60.166-63.984c-19.124 0-34.693-15.594-34.693-34.757a34.785 34.785 0 0 1 34.693-34.749 34.79 34.79 0 0 1 34.702 34.749 34.784 34.784 0 0 1-34.702 34.757m-25.996-34.813c0-14.42 11.674-26.112 26.048-26.112s26.065 11.696 26.065 26.112a26.09 26.09 0 0 1-26.065 26.104 26.1 26.1 0 0 1-18.429-7.66 26.1 26.1 0 0 1-7.619-18.444"/><linearGradient id="gradient" x1="128.001" x2="128.001" y1="0" y2="256" gradientUnits="userSpaceOnUse"><stop stop-color="#111D2E"/><stop offset=".212" stop-color="#051839"/><stop offset=".407" stop-color="#0A1B48"/><stop offset=".581" stop-color="#132E62"/><stop offset=".738" stop-color="#144B7E"/><stop offset=".873" stop-color="#136497"/><stop offset="1" stop-color="#1387B8"/></linearGradient></svg>
